X:908
T:AVANT DEUX DE PLEHEREL
Z: Yves BELOTTEAU
M:4/4
L:1/4
Q:1/4=60
K:C
|g2eg edc2|ecef/2e/2 dcd2|g2eg edc3/2d/2|eefe d2c2|
g2eg edc2|ecef/2e/2 dcd2|g2eg edc3/2d/2|eefe d2c2|
cc/2d/2ef gg/2a/2gg|cc/2d/2ef g/2f/2g/2a/2gg|cc/2d/2ef gg/2a/2gg|cd/2e/2
fe d2c3/2|
